X: 35990
T: Saturation Point
R: jig
M: 6/8
K: Gmajor
|:BAG B2 d|cAG FED|BAG B2 d|cAG A3|
BAG B2 d|cAG FED|GGG FGA|Bdc A3:|
|:B2 d g2 d|e2 d ged|B2 d g2 d|edB A3|
B2 d g2 d|e2 d g2 a|bag age|gdB A3:|

